app/dist/common/images/tag-immobilien-ag.svg

<svg height="18" viewBox="0 0 18 18" width="18" xmlns="http://www.w3.org/2000/svg"><path d="m0 0h18v18h-18z" fill="#002550"/><path d="m3.5 12h1.5v-5h1.55v-1h-4.55v1h1.5zm1.86 0h1.56l.33-1h2.1l.36 1h1.6l-2.11-6h-1.77zm3.64-2h-1.4l.7-2.76h.02zm5-1h2v2.73c-.92.25-1.61.27-2.11.27-1.46 0-3.14-.78-3.14-2.98 0-2.18 1.45-3.02 3.45-3.02.36 0 1.12.04 1.65.26l-.12 1.26a2.65 2.65 0 0 0 -1.33-.37c-1.18 0-2.4.5-2.4 1.85 0 1.14 1.01 1.85 2.08 1.85.2 0 .39-.03.52-.1v-.75h-.6z" fill="#fff"/></svg>

<!-- by TradingView --><svg width="18" height="18" viewBox="0 0 18 18" xmlns="http://www.w3.org/2000/svg"><path fill="#002550" d="M0 0h18v18H0z"/><path d="M3.5 12H5V7h1.55V6H2v1h1.5v5Zm1.86 0h1.56l.33-1h2.1l.36 1h1.6L9.2 6H7.43l-2.07 6ZM9 10H7.6l.7-2.76h.02L9 10Zm5-1h2v2.73c-.92.25-1.61.27-2.11.27-1.46 0-3.14-.78-3.14-2.98C10.75 6.84 12.2 6 14.2 6c.36 0 1.12.04 1.65.26l-.12 1.26a2.65 2.65 0 0 0-1.33-.37c-1.18 0-2.4.5-2.4 1.85 0 1.14 1.01 1.85 2.08 1.85.2 0 .39-.03.52-.1V10H14V9Z" fill="#fff"/></svg>
